packages/icons/web/jcb_large.svg

<svg width="24" height="24" viewBox="0 0 24 24" fill="none" xmlns="http://www.w3.org/2000/svg">
<path d="M22 16.2983C22 18.0098 20.6064 19.4034 18.8949 19.4034H2V7.10513C2 5.39364 3.39364 4 5.10513 4H22V16.2983Z" fill="white"/>
<path d="M16.499 13.1443H17.7826C17.8193 13.1443 17.9049 13.1321 17.9416 13.1321C18.1861 13.0832 18.3939 12.8631 18.3939 12.5575C18.3939 12.2641 18.1861 12.0441 17.9416 11.9829C17.9049 11.9707 17.8315 11.9707 17.7826 11.9707H16.499V13.1443Z" fill="url(#paint0_linear)"/>
<path d="M17.6356 5.03906C16.4131 5.03906 15.4107 6.02928 15.4107 7.264V9.57451H18.5525C18.6258 9.57451 18.7114 9.57451 18.7725 9.58674C19.4816 9.62341 20.0072 9.99016 20.0072 10.6259C20.0072 11.1271 19.6527 11.555 18.9926 11.6405V11.665C19.7138 11.7139 20.264 12.1173 20.264 12.7408C20.264 13.4131 19.6527 13.8532 18.8459 13.8532H15.3984V18.3765H18.6625C19.885 18.3765 20.8874 17.3863 20.8874 16.1515V5.03906H17.6356Z" fill="url(#paint1_linear)"/>
<path d="M18.235 10.7726C18.235 10.4792 18.0271 10.2836 17.7826 10.247C17.7582 10.247 17.6971 10.2347 17.6604 10.2347H16.499V11.3105H17.6604C17.6971 11.3105 17.7704 11.3105 17.7826 11.2983C18.0271 11.2616 18.235 11.066 18.235 10.7726Z" fill="url(#paint2_linear)"/>
<path d="M5.33775 5.03906C4.11526 5.03906 3.11281 6.02928 3.11281 7.264V12.753C3.73628 13.0586 4.3842 13.2542 5.03213 13.2542C5.8023 13.2542 6.21795 12.7897 6.21795 12.154V9.56229H8.12504V12.1418C8.12504 13.1442 7.50156 13.9633 5.38665 13.9633C4.10303 13.9633 3.10059 13.6821 3.10059 13.6821V18.3642H6.36464C7.58714 18.3642 8.58958 17.374 8.58958 16.1393V5.03906H5.33775Z" fill="url(#paint3_linear)"/>
<path d="M11.4867 5.03906C10.2642 5.03906 9.26172 6.02928 9.26172 7.264V10.1735C9.82407 9.69676 10.8021 9.39114 12.3791 9.46449C13.2226 9.50117 14.1272 9.73344 14.1272 9.73344V10.6748C13.6749 10.4425 13.137 10.2347 12.4402 10.1858C11.2422 10.1002 10.5209 10.687 10.5209 11.7139C10.5209 12.753 11.2422 13.3398 12.4402 13.242C13.137 13.1931 13.6749 12.973 14.1272 12.753V13.6943C14.1272 13.6943 13.2348 13.9266 12.3791 13.9633C10.8021 14.0366 9.82407 13.731 9.26172 13.2542V18.3887H12.5258C13.7483 18.3887 14.7507 17.3985 14.7507 16.1638V5.03906H11.4867Z" fill="url(#paint4_linear)"/>
<defs>
<linearGradient id="paint0_linear" x1="15.409" y1="12.559" x2="20.9025" y2="12.559" gradientUnits="userSpaceOnUse">
<stop stop-color="#007940"/>
<stop offset="0.2285" stop-color="#00873F"/>
<stop offset="0.7433" stop-color="#40A737"/>
<stop offset="1" stop-color="#5CB531"/>
</linearGradient>
<linearGradient id="paint1_linear" x1="15.4085" y1="11.7024" x2="20.9024" y2="11.7024" gradientUnits="userSpaceOnUse">
<stop stop-color="#007940"/>
<stop offset="0.2285" stop-color="#00873F"/>
<stop offset="0.7433" stop-color="#40A737"/>
<stop offset="1" stop-color="#5CB531"/>
</linearGradient>
<linearGradient id="paint2_linear" x1="15.4088" y1="10.7711" x2="20.9026" y2="10.7711" gradientUnits="userSpaceOnUse">
<stop stop-color="#007940"/>
<stop offset="0.2285" stop-color="#00873F"/>
<stop offset="0.7433" stop-color="#40A737"/>
<stop offset="1" stop-color="#5CB531"/>
</linearGradient>
<linearGradient id="paint3_linear" x1="3.11022" y1="11.7024" x2="8.68883" y2="11.7024" gradientUnits="userSpaceOnUse">
<stop stop-color="#1F286F"/>
<stop offset="0.4751" stop-color="#004E94"/>
<stop offset="0.8261" stop-color="#0066B1"/>
<stop offset="1" stop-color="#006FBC"/>
</linearGradient>
<linearGradient id="paint4_linear" x1="9.23011" y1="11.7024" x2="14.6482" y2="11.7024" gradientUnits="userSpaceOnUse">
<stop stop-color="#6C2C2F"/>
<stop offset="0.1735" stop-color="#882730"/>
<stop offset="0.5731" stop-color="#BE1833"/>
<stop offset="0.8585" stop-color="#DC0436"/>
<stop offset="1" stop-color="#E60039"/>
</linearGradient>
</defs>
</svg>

<svg width="24" height="24" fill="none" xmlns="http://www.w3.org/2000/svg">
    <path d="M22 16.298a3.11 3.11 0 01-3.105 3.105H2V7.105A3.11 3.11 0 015.105 4H22v12.298z" fill="#fff"/>
    <path d="M16.499 13.144h1.284c.036 0 .122-.012.159-.012a.573.573 0 00.452-.575.593.593 0 00-.452-.574c-.037-.012-.11-.012-.16-.012H16.5v1.173z" fill="url(#paint0_linear)"/>
    <path d="M17.636 5.04c-1.223 0-2.225.99-2.225 2.224v2.31h3.141c.074 0 .16 0 .22.013.71.036 1.235.403 1.235 1.039 0 .501-.354.929-1.014 1.014v.025c.72.049 1.271.452 1.271 1.076 0 .672-.611 1.112-1.418 1.112h-3.448v4.524h3.265c1.222 0 2.224-.99 2.224-2.226V5.04h-3.251z" fill="url(#paint1_linear)"/>
    <path d="M18.235 10.773a.52.52 0 00-.452-.526c-.025 0-.086-.012-.123-.012H16.5v1.075h1.161c.037 0 .11 0 .123-.012a.52.52 0 00.452-.525z" fill="url(#paint2_linear)"/>
    <path d="M5.338 5.04c-1.223 0-2.225.99-2.225 2.224v5.489c.623.306 1.271.501 1.92.501.77 0 1.185-.464 1.185-1.1V9.562h1.907v2.58c0 1.002-.623 1.821-2.738 1.821-1.284 0-2.286-.28-2.286-.28v4.681h3.264c1.222 0 2.225-.99 2.225-2.225V5.04H5.338z" fill="url(#paint3_linear)"/>
    <path d="M11.487 5.04c-1.223 0-2.225.99-2.225 2.224v2.91c.562-.477 1.54-.783 3.117-.71.844.037 1.748.27 1.748.27v.94a4.231 4.231 0 00-1.687-.488c-1.198-.086-1.92.501-1.92 1.528 0 1.039.722 1.626 1.92 1.528.697-.049 1.235-.269 1.687-.489v.941s-.892.233-1.748.27c-1.577.073-2.555-.233-3.117-.71v5.135h3.264c1.222 0 2.225-.99 2.225-2.225V5.039h-3.264z" fill="url(#paint4_linear)"/>
    <defs>
        <linearGradient id="paint0_linear" x1="15.409" y1="12.559" x2="20.902" y2="12.559" gradientUnits="userSpaceOnUse">
            <stop stop-color="#007940"/>
            <stop offset=".229" stop-color="#00873F"/>
            <stop offset=".743" stop-color="#40A737"/>
            <stop offset="1" stop-color="#5CB531"/>
        </linearGradient>
        <linearGradient id="paint1_linear" x1="15.409" y1="11.702" x2="20.902" y2="11.702" gradientUnits="userSpaceOnUse">
            <stop stop-color="#007940"/>
            <stop offset=".229" stop-color="#00873F"/>
            <stop offset=".743" stop-color="#40A737"/>
            <stop offset="1" stop-color="#5CB531"/>
        </linearGradient>
        <linearGradient id="paint2_linear" x1="15.409" y1="10.771" x2="20.903" y2="10.771" gradientUnits="userSpaceOnUse">
            <stop stop-color="#007940"/>
            <stop offset=".229" stop-color="#00873F"/>
            <stop offset=".743" stop-color="#40A737"/>
            <stop offset="1" stop-color="#5CB531"/>
        </linearGradient>
        <linearGradient id="paint3_linear" x1="3.11" y1="11.702" x2="8.689" y2="11.702" gradientUnits="userSpaceOnUse">
            <stop stop-color="#1F286F"/>
            <stop offset=".475" stop-color="#004E94"/>
            <stop offset=".826" stop-color="#0066B1"/>
            <stop offset="1" stop-color="#006FBC"/>
        </linearGradient>
        <linearGradient id="paint4_linear" x1="9.23" y1="11.702" x2="14.648" y2="11.702" gradientUnits="userSpaceOnUse">
            <stop stop-color="#6C2C2F"/>
            <stop offset=".173" stop-color="#882730"/>
            <stop offset=".573" stop-color="#BE1833"/>
            <stop offset=".859" stop-color="#DC0436"/>
            <stop offset="1" stop-color="#E60039"/>
        </linearGradient>
    </defs>
</svg>
